admin/assets/img/nx-icon.svg

<svg height="392" viewBox="0 0 387 392" width="387" xmlns="http://www.w3.org/2000/svg"><g fill="none" fill-rule="evenodd"><g fill-rule="nonzero"><path d="m135.45 358.68h113.62c-2.05 13.15-27.83 29.91-49.81 32.3-25.34 2.75-56.03-12.6-63.81-32.3z" fill="#5614d5"/><path d="m372.31 305.79c-2.34-.2-4.71-.08-7.07-.08-5.61-.01-11.22 0-18.16 0 0-4.28 0-7.29 0-10.3-.01-46.66.17-93.32-.17-139.98-.08-10.54-1.03-21.24-3.12-31.56-17.4-85.97-103.85-140.06-188.98-118.65-67.97 17.09-116.9 79.04-116.62 149.48.17 42.42.02 84.84.01 127.26 0 3.84-.02 15.83-.04 23.74-5.18-.04-20.09-.13-25.3.18-7.73.45-12.92 6.43-12.82 14.09.1 7.46 5.04 12.77 12.63 13.45 2.11.19 4.24.15 6.36.15 115.71.04 231.43.07 347.14.09 2.12 0 4.25.03 6.36-.18 7.48-.75 12.61-6.25 12.75-13.53.13-7.37-5.42-13.51-12.97-14.16z" fill="#5614d5"/><circle cx="281.55" cy="255.92" fill="#836eff" r="15.49"/><path d="m295.67 140.1.24-.16c-.21-1.31-.39-2.65-.64-3.92-9.4-46.45-49.44-80.68-96.48-83.49-.06 0-.12-.01-.18-.01-2.02-.12-4.04-.2-6.08-.2-.05 0-.09 0-.14 0s-.09 0-.14 0c-2.04 0-4.07.08-6.08.2-.06 0-.12.01-.18.01-47.04 2.81-87.08 37.04-96.48 83.49-.26 1.27-.44 2.61-.64 3.92l.24.16c-.91 5.5-1.39 11.12-1.37 16.8.02 4.52.03 99.87.04 112.84l32.13 34.68c0-24.28-.01-133.85-.06-147.64-.13-32.6 22.96-62.09 54.91-70.12 2.65-.67 5.33-1.16 8.02-1.53.45-.06.89-.13 1.35-.18 1.02-.12 2.04-.21 3.05-.29 1.46-.1 2.92-.18 4.4-.19.27 0 .54-.02.81-.03.27 0 .54.02.81.03 1.48.01 2.94.09 4.4.19 1.02.08 2.04.17 3.05.29.45.05.9.12 1.35.18 2.69.37 5.37.86 8.02 1.53 31.94 8.03 55.04 37.53 54.91 70.12-.02 5.17-.03 50.29-.04 71.4l32.14-21.45c0-12.23.01-48.45.01-49.82.02-5.7-.45-11.31-1.37-16.81z" fill="#836eff"/></g><path d="m31.94 305.72c-6.36.13-12.74-.21-19.08.16-7.73.45-12.92 6.43-12.82 14.09.1 7.46 5.04 12.77 12.63 13.45 2.11.19 4.24.15 6.36.15 115.71.04 231.42.06 347.14.09 2.12 0 4.25.03 6.36-.18 7.48-.75 12.61-6.25 12.75-13.53.14-7.37-5.41-13.5-12.96-14.16-2.34-.2-4.71-.08-7.07-.08-5.61-.01-11.22 0-18.16 0 0-4.28 0-7.29 0-10.3-.01-40.67.11-81.34-.08-122l-215.39 143.62-78.04-84.22 33.47-30.79 51.67 55.6 204.48-136.36c-18.61-84.45-104.12-137.24-188.38-116.05-67.97 17.09-116.9 79.04-116.62 149.48.17 42.42.02 84.84.01 127.26 0 5.89.09 11.79-.05 17.67"/><path d="m346.91 155.42c.04 5.99.06 11.99.09 17.98l39.14-25.99-25.24-37.84-17.7 11.69c.19.87.42 1.72.6 2.59 2.08 10.33 3.04 21.04 3.11 31.57z" fill="#00f9ac" fill-rule="nonzero"/><path d="m87.05 202.03-33.47 30.79 78.04 84.22 215.38-143.63c-.03-5.99-.04-11.99-.09-17.98-.08-10.54-1.03-21.24-3.12-31.56-.18-.88-.4-1.73-.6-2.59l-204.47 136.35z"/><path d="m87.05 202.03-33.47 30.79 78.04 84.22 215.38-143.63c-.03-5.99-.04-11.99-.09-17.98-.08-10.54-1.03-21.24-3.12-31.56-.18-.88-.4-1.73-.6-2.59l-204.47 136.35z" fill="#21d8a3" fill-rule="nonzero" opacity=".9"/></g></svg>

<svg width="387px" height="392px" viewBox="0 0 387 392" version="1.1" xmlns="http://www.w3.org/2000/svg" xmlns:xlink="http://www.w3.org/1999/xlink">
    <!-- Generator: Sketch 51.2 (57519) - http://www.bohemiancoding.com/sketch -->
    <desc>Created with Sketch.</desc>
    <defs></defs>
    <g id="Page-1" stroke="none" stroke-width="1" fill="none" fill-rule="evenodd">
        <g id="NotificationX_final" transform="translate(-1564.000000, -253.000000)">
            <g id="Group" transform="translate(1564.000000, 253.000000)">
                <path d="M135.45,358.68 C173.45,358.68 211.27,358.68 249.07,358.68 C247.02,371.83 221.24,388.59 199.26,390.98 C173.92,393.73 143.23,378.38 135.45,358.68 Z" id="Shape" fill="#5614D5" fill-rule="nonzero"></path>
                <path d="M372.31,305.79 C369.97,305.59 367.6,305.71 365.24,305.71 C359.63,305.7 354.02,305.71 347.08,305.71 C347.08,301.43 347.08,298.42 347.08,295.41 C347.07,248.75 347.25,202.09 346.91,155.43 C346.83,144.89 345.88,134.19 343.79,123.87 C326.39,37.9 239.94,-16.19 154.81,5.22 C86.84,22.31 37.91,84.26 38.19,154.7 C38.36,197.12 38.21,239.54 38.2,281.96 C38.2,285.8 38.18,297.79 38.16,305.7 C32.98,305.66 18.07,305.57 12.86,305.88 C5.13,306.33 -0.06,312.31 0.04,319.97 C0.14,327.43 5.08,332.74 12.67,333.42 C14.78,333.61 16.91,333.57 19.03,333.57 C134.74,333.61 250.46,333.64 366.17,333.66 C368.29,333.66 370.42,333.69 372.53,333.48 C380.01,332.73 385.14,327.23 385.28,319.95 C385.41,312.58 379.86,306.44 372.31,305.79 Z" id="Shape" fill="#5614D5" fill-rule="nonzero"></path>
                <circle id="Oval" fill="#836EFF" fill-rule="nonzero" cx="281.55" cy="255.92" r="15.49"></circle>
                <path d="M295.67,140.1 L295.91,139.94 C295.7,138.63 295.52,137.29 295.27,136.02 C285.87,89.57 245.83,55.34 198.79,52.53 C198.73,52.53 198.67,52.52 198.61,52.52 C196.59,52.4 194.57,52.32 192.53,52.32 C192.48,52.32 192.44,52.32 192.39,52.32 C192.34,52.32 192.3,52.32 192.25,52.32 C190.21,52.32 188.18,52.4 186.17,52.52 C186.11,52.52 186.05,52.53 185.99,52.53 C138.95,55.34 98.91,89.57 89.51,136.02 C89.25,137.29 89.07,138.63 88.87,139.94 L89.11,140.1 C88.2,145.6 87.72,151.22 87.74,156.9 C87.76,161.42 87.77,256.77 87.78,269.74 L119.91,304.42 C119.91,280.14 119.9,170.57 119.85,156.78 C119.72,124.18 142.81,94.69 174.76,86.66 C177.41,85.99 180.09,85.5 182.78,85.13 C183.23,85.07 183.67,85 184.13,84.95 C185.15,84.83 186.17,84.74 187.18,84.66 C188.64,84.56 190.1,84.48 191.58,84.47 C191.85,84.47 192.12,84.45 192.39,84.44 C192.66,84.44 192.93,84.46 193.2,84.47 C194.68,84.48 196.14,84.56 197.6,84.66 C198.62,84.74 199.64,84.83 200.65,84.95 C201.1,85 201.55,85.07 202,85.13 C204.69,85.5 207.37,85.99 210.02,86.66 C241.96,94.69 265.06,124.19 264.93,156.78 C264.91,161.95 264.9,207.07 264.89,228.18 L297.03,206.73 C297.03,194.5 297.04,158.28 297.04,156.91 C297.06,151.21 296.59,145.6 295.67,140.1 Z" id="Shape" fill="#836EFF" fill-rule="nonzero"></path>
                <path d="M31.94,305.72 C25.58,305.85 19.2,305.51 12.86,305.88 C5.13,306.33 -0.06,312.31 0.04,319.97 C0.14,327.43 5.08,332.74 12.67,333.42 C14.78,333.61 16.91,333.57 19.03,333.57 C134.74,333.61 250.45,333.63 366.17,333.66 C368.29,333.66 370.42,333.69 372.53,333.48 C380.01,332.73 385.14,327.23 385.28,319.95 C385.42,312.58 379.87,306.45 372.32,305.79 C369.98,305.59 367.61,305.71 365.25,305.71 C359.64,305.7 354.03,305.71 347.09,305.71 C347.09,301.43 347.09,298.42 347.09,295.41 C347.08,254.74 347.2,214.07 347.01,173.41 L131.62,317.03 L53.58,232.81 L87.05,202.02 L138.72,257.62 L343.2,121.26 C324.59,36.81 239.08,-15.98 154.82,5.21 C86.85,22.3 37.92,84.25 38.2,154.69 C38.37,197.11 38.22,239.53 38.21,281.95 C38.21,287.84 38.3,293.74 38.16,299.62" id="Shape"></path>
                <path d="M346.91,155.42 C346.95,161.41 346.97,167.41 347,173.4 L386.14,147.41 L360.9,109.57 L343.2,121.26 C343.39,122.13 343.62,122.98 343.8,123.85 C345.88,134.18 346.84,144.89 346.91,155.42 Z" id="Shape" fill="#00F9AC" fill-rule="nonzero"></path>
                <path d="M87.05,202.03 L53.58,232.82 L131.62,317.04 L347,173.41 C346.97,167.42 346.96,161.42 346.91,155.43 C346.83,144.89 345.88,134.19 343.79,123.87 C343.61,122.99 343.39,122.14 343.19,121.28 L138.72,257.63 L87.05,202.03 Z" id="Shape"></path>
                <path d="M87.05,202.03 L53.58,232.82 L131.62,317.04 L347,173.41 C346.97,167.42 346.96,161.42 346.91,155.43 C346.83,144.89 345.88,134.19 343.79,123.87 C343.61,122.99 343.39,122.14 343.19,121.28 L138.72,257.63 L87.05,202.03 Z" id="Shape" fill="#21D8A3" fill-rule="nonzero" opacity="0.9"></path>
            </g>
        </g>
    </g>
</svg>
